X:45
T:Polska ur Petter Dufvas notbok (Ma6-45)
T:A.C. Dufva
R:Polska
O:Verkelbäck, Småland
B:Petter Dufvas notbok
S:Petter Dufva
N:Smus Ma6 bild 47
M:3/4
L:1/8
K:D
d2 d2 d2|dB AB cA|d2 df ed|c>B A4:|
|:ff fe/f/ g2|AB AG FD|ee ed/e/ f2|AB AGFD|
ff fe/f/ g2|ee ed/e/ f2|ff fe/f/ g2|ee ed/e/ f2|
AB AGFD|AB AGFD|DA Bcde|ed/c/ d2 D2:|

